icon-themes/breeze_svg/cmd/sc_printpreview.svg

<svg viewBox="0 0 16 16" xmlns="http://www.w3.org/2000/svg">/&gt;<path d="m3 2v12h7v-1h-6v-10h8v6h1v-7zm5 3c-1.662 0-3 1.338-3 3s1.338 3 3 3c.64939 0 1.26003-.2145 1.75-.5625l2.53125 2.5625.71875-.71875-2.5625-2.53125c.34805-.4899.5625-1.1006.5625-1.75 0-1.662-1.338-3-3-3zm0 1c1.108 0 2 .892 2 2s-.892 2-2 2-2-.892-2-2 .892-2 2-2z" fill="#4d4d4d"/></svg>

<svg xmlns="http://www.w3.org/2000/svg" viewBox="0 0 16 16">
     />
 <path 
     style="fill:#4d4d4d" 
     d="M 3 2 L 3 14 L 10 14 L 10 13 L 4 13 L 4 3 L 12 3 L 12 9 L 13 9 L 13 2 L 3 2 z M 8 5 C 6.338 5 5 6.338 5 8 C 5 9.662 6.338 11 8 11 C 8.64939 11 9.26003 10.7855 9.75 10.4375 L 12.28125 13 L 13 12.28125 L 10.4375 9.75 C 10.78555 9.2601 11 8.6494 11 8 C 11 6.338 9.662 5 8 5 z M 8 6 C 9.108 6 10 6.892 10 8 C 10 9.108 9.108 10 8 10 C 6.892 10 6 9.108 6 8 C 6 6.892 6.892 6 8 6 z "
     />
 </svg>
